packages/token-projects/images/lp_acala_ausd.svg

<svg width="716" height="715" xmlns="http://www.w3.org/2000/svg" xml:space="preserve" overflow="hidden"><defs><clipPath id="a"><path d="M2714 1700h716v715h-716z"/></clipPath><clipPath id="c"><path d="M2906 1827h326v287h-326z"/></clipPath><clipPath id="d"><path d="M2906 1827h326v287h-326z"/></clipPath><clipPath id="e"><path d="M2906 1827h326v287h-326z"/></clipPath><clipPath id="f"><path d="M3100 2176h136v136h-136z"/></clipPath><clipPath id="g"><path d="M3100 2176h136v136h-136z"/></clipPath><clipPath id="h"><path d="M3100 2176h136v136h-136z"/></clipPath><clipPath id="k"><path d="M2876 2142h202v203h-202z"/></clipPath><clipPath id="l"><path d="M2876 2142h202v203h-202z"/></clipPath><clipPath id="m"><path d="M2876 2142h202v203h-202z"/></clipPath><clipPath id="n"><path d="M2876 2142h202v203h-202z"/></clipPath><linearGradient x1="26.943" y1="356.948" x2="688.284" y2="356.948" gradientUnits="userSpaceOnUse" spreadMethod="pad" id="b"><stop offset="0" stop-color="#008EF0"/><stop offset=".001" stop-color="#008EF0"/><stop offset="1" stop-color="#7FFDFF"/></linearGradient><linearGradient x1="3289.3" y1="2364.82" x2="3102.37" y2="2135.9" gradientUnits="userSpaceOnUse" spreadMethod="pad" id="i"><stop offset="0" stop-color="#645AFF"/><stop offset=".521" stop-color="#E40C5B"/><stop offset=".986" stop-color="#FF4C3B"/><stop offset="1" stop-color="#FF4C3B"/></linearGradient><linearGradient x1="3172.63" y1="2121.95" x2="3344.39" y2="2159.68" gradientUnits="userSpaceOnUse" spreadMethod="pad" id="j"><stop offset="0" stop-color="#FFF" stop-opacity=".2"/><stop offset="1" stop-color="#FFF" stop-opacity="0"/></linearGradient><linearGradient x1="3016.07" y1="2302.61" x2="2937.72" y2="2182.55" gradientUnits="userSpaceOnUse" spreadMethod="pad" id="o"><stop offset="0" stop-color="#645AFF"/><stop offset=".008" stop-color="#645AFF"/><stop offset=".504" stop-color="#E40C5B"/><stop offset="1" stop-color="#FF4C3B"/></linearGradient></defs><g clip-path="url(#a)" transform="translate(-2714 -1700)"><path d="M591.437 123.125c-62.456-62.456-145.489-96.856-233.818-96.856-88.329 0-171.375 34.4-233.831 96.856-62.457 62.457-96.843 145.503-96.843 233.819s34.4 171.362 96.843 233.818c62.443 62.457 145.489 96.856 233.818 96.856 88.329 0 171.362-34.399 233.818-96.856 62.457-62.456 96.856-145.489 96.856-233.818 0-88.329-34.386-171.362-96.843-233.819Z" fill="url(#b)" transform="matrix(1.0014 0 0 1 2714 1700)"/><path d="M3072.12 2414.444c-95.626 0-185.524-37.18-253.146-104.708-67.623-67.528-104.855-157.3-104.855-252.792 0-95.492 37.232-185.265 104.855-252.792 67.622-67.528 157.52-104.708 253.146-104.708 95.625 0 185.524 37.18 253.146 104.708 67.622 67.527 104.854 157.3 104.854 252.792 0 95.492-37.232 185.264-104.854 252.792-67.622 67.528-157.52 104.708-253.146 104.708Zm0-688.161c-88.453 0-171.602 34.4-234.146 96.856-62.544 62.456-96.991 145.489-96.991 233.805s34.447 171.362 96.978 233.818c62.53 62.457 145.693 96.856 234.146 96.856 88.452 0 171.602-34.399 234.145-96.856 62.544-62.456 96.992-145.489 96.992-233.818 0-88.329-34.448-171.362-96.992-233.818-62.543-62.457-145.693-96.843-234.132-96.843Z" fill="#FFF"/><g clip-path="url(#c)"><g clip-path="url(#d)"><g clip-path="url(#e)"><path d="M3145.857 2111.964a78.213 78.213 0 0 1-31.537-6.625c-20.39-8.973-36.064-26.294-42.991-47.51l-2.649-8.114-2.649 8.113c-6.927 21.217-22.602 38.538-42.991 47.526a78.338 78.338 0 0 1-63.978-.409l-28.54-13.001c-14.931-6.8-24.522-21.727-24.522-38.172v-105.207c0-7.85 5.632-14.563 13.346-15.89 45.028-7.793 96.664-11.922 149.334-11.922 17.217 0 34.317.437 51.112 1.298 17.813.92 31.29 16.548 29.747 34.379-26.109-2.262-53.309-3.414-80.859-3.414-45.713 0-90.509 3.195-130.517 9.28v91.49a9.689 9.689 0 0 0 5.662 8.814l27.288 12.447c12.24 5.574 26.385 6.274 38.727.92 12.327-5.356 21.423-15.351 25.599-28.134l5.4-16.547c3.929-12.053 14.903-20.808 27.55-20.91 12.865-.117 23.795 7.762 27.782 19.99l5.283 16.168c4.192 12.811 13.23 23.712 25.498 29.213 12.269 5.5 25.789 5.458 38-.117l28.539-13a9.688 9.688 0 0 0 5.661-8.814V1827h32.178v226.743c0 16.445-9.59 31.372-24.522 38.172l-28.54 13.001c-10.246 4.698-21.321 7.048-32.411 7.048Z" fill="#FFF"/></g></g></g><g clip-path="url(#f)"><g clip-path="url(#g)"><g clip-path="url(#h)"><path d="M3235 2244c0 37-30 67-67 67s-67-30-67-67 30-67 67-67 67 30 67 67Z" fill="url(#i)"/><path d="M3235 2244c0 37-30 67-67 67s-67-30-67-67 30-67 67-67 67 30 67 67Z" fill="url(#j)"/><path d="M3227.31 2244c0 32.76-26.55 59.31-59.31 59.31-32.76 0-59.31-26.55-59.31-59.31 0-32.76 26.55-59.31 59.31-59.31 32.76 0 59.31 26.55 59.31 59.31Z" stroke="#FFF" stroke-width="2.617" fill="none"/><path d="M3155.73 2264.33v15.45c0 1.76-.37 3.28-1.12 4.56-.74 1.28-1.81 2.25-3.2 2.92-1.39.67-3.03 1.01-4.93 1.01-2.86 0-5.12-.75-6.77-2.24-1.65-1.49-2.49-3.54-2.52-6.13v-15.57h5.7v15.68c.07 2.59 1.27 3.88 3.59 3.88 1.18 0 2.07-.33 2.67-.97.6-.65.9-1.71.9-3.17v-15.42h5.68ZM3171.42 2281.67c0-.84-.29-1.49-.89-1.95-.58-.47-1.61-.95-3.08-1.44-1.48-.5-2.69-.98-3.62-1.45-3.05-1.5-4.58-3.57-4.58-6.19 0-1.31.38-2.46 1.13-3.46.77-1.01 1.85-1.78 3.24-2.34 1.39-.56 2.95-.84 4.68-.84 1.7 0 3.21.3 4.55.91 1.34.6 2.39 1.47 3.13 2.59.74 1.12 1.12 2.39 1.12 3.83h-5.66c0-.96-.3-1.71-.89-2.24-.58-.53-1.37-.79-2.38-.79-1.01 0-1.81.23-2.4.68-.59.44-.88 1.01-.88 1.7 0 .61.33 1.16.97 1.66.65.49 1.79.99 3.41 1.52 1.63.52 2.97 1.08 4.01 1.69 2.54 1.47 3.82 3.5 3.82 6.08 0 2.07-.78 3.69-2.33 4.87-1.55 1.18-3.68 1.77-6.39 1.77-1.9 0-3.63-.34-5.18-1.02-1.54-.7-2.71-1.64-3.5-2.83-.77-1.2-1.16-2.58-1.16-4.13h5.69c0 1.26.32 2.2.97 2.8.66.6 1.72.9 3.18.9.94 0 1.68-.2 2.22-.6.55-.42.82-.99.82-1.72ZM3180.01 2287.94v-23.61h7.58c2.08 0 3.95.47 5.61 1.42 1.65.94 2.95 2.28 3.87 4.01.94 1.72 1.42 3.65 1.43 5.79v1.09c0 2.16-.46 4.1-1.38 5.82a9.911 9.911 0 0 1-3.84 4.02c-1.65.97-3.5 1.45-5.53 1.46h-7.74Zm5.67-19.22v14.84h1.97c1.63 0 2.88-.57 3.75-1.73.87-1.17 1.31-2.9 1.31-5.19v-1.02c0-2.29-.44-4.01-1.31-5.16-.87-1.16-2.14-1.74-3.81-1.74h-1.91Z" fill="#FFF"/><path d="M3167.95 2237.19c-2.33 0-4.65.19-6.95.58l3.46-6a51.074 51.074 0 0 1 11.62.53l-13.4-23.31-22.3 38.81-3.19-5.54 25.44-44.3.05.09.06-.08 30.7 53.45h-6.37l-7.18-12.49c-3.87-1.17-7.9-1.76-11.94-1.74Zm27.47 10.71-29.73-51.76h6.37l26.55 46.21-3.19 5.55Zm-29.51-26.22-12.21 21.26c4.37-1.33 9.51-1.92 14.36-1.92.4 0 .79 0 1.18.02 2.76.06 5.5.35 8.21.85l4.07 7.1c-4.31-1.6-8.86-2.42-13.46-2.43a40.047 40.047 0 0 0-19.18 4.81l.09-.16-.12.21h-6.38l20.27-35.29 3.17 5.55Z" fill="#FFF" fill-rule="evenodd"/></g></g></g><g clip-path="url(#k)"><g clip-path="url(#l)"><g clip-path="url(#m)"><g clip-path="url(#n)"><path d="M2977.5 2310.5c37 0 67-30 67-67s-30-67-67-67-67 30-67 67 30 67 67 67Zm.27-6.29c33.53 0 60.71-27.18 60.71-60.71 0-33.52-27.18-60.71-60.71-60.71s-60.71 27.18-60.71 60.71 27.18 60.71 60.71 60.71Zm-.27-4.65c30.96 0 56.06-25.1 56.06-56.06s-25.1-56.06-56.06-56.06-56.06 25.1-56.06 56.06 25.1 56.06 56.06 56.06Zm.14-6.83c27.26 0 49.36-22.1 49.36-49.37 0-27.26-22.1-49.36-49.36-49.36-27.26 0-49.36 22.1-49.36 49.36 0 27.27 22.09 49.37 49.36 49.37Zm-.42-40.13c-2.74 0-5.4.23-7.98.67l3.97-6.9a59.68 59.68 0 0 1 13.37.62l-15.42-26.79-25.68 44.6-3.67-6.38 29.29-50.86.06.1.06-.1 35.34 61.39h-7.33l-8.26-14.35c-4.31-1.3-8.91-2-13.75-2Zm31.63 12.3-34.22-59.43h7.34l30.55 53.06-3.67 6.37Zm-33.96-30.11-14.05 24.41c5.02-1.52 10.94-2.2 16.52-2.2.46 0 .91 0 1.36.01 3.17.08 6.38.41 9.45.99l4.69 8.14c-4.8-1.75-10-2.78-15.5-2.78-8.13 0-15.6 2.02-22.1 5.52l.1-.18-.14.24h-7.34l23.34-40.52 3.67 6.37Z" fill="url(#o)" fill-rule="evenodd"/></g></g></g></g></g></svg>

<svg width="716" height="715" xmlns="http://www.w3.org/2000/svg" xmlns:xlink="http://www.w3.org/1999/xlink" xml:space="preserve" overflow="hidden"><defs><clipPath id="clip0"><rect x="2714" y="1700" width="716" height="715"/></clipPath><linearGradient x1="26.9431" y1="356.948" x2="688.284" y2="356.948" gradientUnits="userSpaceOnUse" spreadMethod="pad" id="fill1"><stop offset="0" stop-color="#008EF0"/><stop offset="0.00127816" stop-color="#008EF0"/><stop offset="1" stop-color="#7FFDFF"/></linearGradient><clipPath id="clip2"><rect x="2906" y="1827" width="326" height="287"/></clipPath><clipPath id="clip3"><rect x="2906" y="1827" width="326" height="287"/></clipPath><clipPath id="clip4"><rect x="2906" y="1827" width="326" height="287"/></clipPath><clipPath id="clip5"><rect x="3100" y="2176" width="136" height="136"/></clipPath><clipPath id="clip6"><rect x="3100" y="2176" width="136" height="136"/></clipPath><clipPath id="clip7"><rect x="3100" y="2176" width="136" height="136"/></clipPath><linearGradient x1="3289.3" y1="2364.82" x2="3102.37" y2="2135.9" gradientUnits="userSpaceOnUse" spreadMethod="pad" id="fill8"><stop offset="0" stop-color="#645AFF"/><stop offset="0.520746" stop-color="#E40C5B"/><stop offset="0.985908" stop-color="#FF4C3B"/><stop offset="1" stop-color="#FF4C3B"/></linearGradient><linearGradient x1="3172.63" y1="2121.95" x2="3344.39" y2="2159.68" gradientUnits="userSpaceOnUse" spreadMethod="pad" id="fill9"><stop offset="0" stop-color="#FFFFFF" stop-opacity="0.2"/><stop offset="1" stop-color="#FFFFFF" stop-opacity="0"/></linearGradient><clipPath id="clip10"><rect x="2876" y="2142" width="202" height="203"/></clipPath><clipPath id="clip11"><rect x="2876" y="2142" width="202" height="203"/></clipPath><clipPath id="clip12"><rect x="2876" y="2142" width="202" height="203"/></clipPath><clipPath id="clip13"><rect x="2876" y="2142" width="202" height="203"/></clipPath><linearGradient x1="3016.07" y1="2302.61" x2="2937.72" y2="2182.55" gradientUnits="userSpaceOnUse" spreadMethod="pad" id="fill14"><stop offset="0" stop-color="#645AFF"/><stop offset="0.0076157" stop-color="#645AFF"/><stop offset="0.5038" stop-color="#E40C5B"/><stop offset="1" stop-color="#FF4C3B"/></linearGradient></defs><g clip-path="url(#clip0)" transform="translate(-2714 -1700)"><path d="M591.437 123.125C528.981 60.6688 445.948 26.2694 357.619 26.2694 269.29 26.2694 186.244 60.6688 123.788 123.125 61.3311 185.582 26.9449 268.628 26.9449 356.944 26.9449 445.26 61.3444 528.306 123.788 590.762 186.231 653.219 269.277 687.618 357.606 687.618 445.935 687.618 528.968 653.219 591.424 590.762 653.881 528.306 688.28 445.273 688.28 356.944 688.28 268.615 653.894 185.582 591.437 123.125Z" fill="url(#fill1)" transform="matrix(1.0014 0 0 1 2714 1700)"/><path d="M357.619 714.444C262.127 714.444 172.355 677.264 104.827 609.736 37.2992 542.208 0.119121 452.436 0.119121 356.944 0.119121 261.452 37.2992 171.679 104.827 104.152 172.355 36.624 262.127-0.556008 357.619-0.556008 453.111-0.556008 542.884 36.624 610.411 104.152 677.939 171.679 715.119 261.452 715.119 356.944 715.119 452.436 677.939 542.208 610.411 609.736 542.884 677.264 453.111 714.444 357.619 714.444ZM357.619 26.283C269.29 26.283 186.257 60.6824 123.801 123.139 61.3444 185.595 26.9449 268.628 26.9449 356.944 26.9449 445.26 61.3444 528.306 123.788 590.762 186.231 653.219 269.277 687.618 357.606 687.618 445.935 687.618 528.968 653.219 591.424 590.762 653.881 528.306 688.28 445.273 688.28 356.944 688.28 268.615 653.881 185.582 591.424 123.126 528.968 60.6692 445.935 26.283 357.619 26.283Z" fill="#FFFFFF" transform="matrix(1.0014 0 0 1 2714 1700)"/><g clip-path="url(#clip2)"><g clip-path="url(#clip3)"><g clip-path="url(#clip4)"><path d="M239.857 284.217C229.102 284.217 218.362 282.019 208.32 277.609 187.93 268.659 172.256 251.384 165.329 230.223L162.68 222.131 160.031 230.223C153.104 251.384 137.429 268.659 117.04 277.624 96.6502 286.574 73.3354 286.429 53.0623 277.216L24.5228 264.249C9.59079 257.467 0 242.579 0 226.177L0 121.246C0 113.416 5.63223 106.721 13.3456 105.397 58.3744 97.6253 110.01 93.5067 162.68 93.5067 179.897 93.5067 196.997 93.9433 213.792 94.8019 231.605 95.7188 245.082 111.306 243.539 129.09 217.43 126.834 190.23 125.685 162.68 125.685 116.967 125.685 72.1711 128.872 32.1634 134.941L32.1634 226.192C32.1634 229.975 34.3755 233.41 37.8247 234.982L65.1127 247.396C77.3522 252.956 91.4983 253.654 103.84 248.313 116.167 242.972 125.263 233.003 129.439 220.254L134.839 203.75C138.768 191.729 149.742 182.997 162.389 182.895 175.254 182.778 186.184 190.637 190.171 202.833L195.454 218.958C199.646 231.736 208.684 242.608 220.952 248.095 233.221 253.581 246.741 253.538 258.952 247.978L287.491 235.011C290.94 233.439 293.152 230.005 293.152 226.221L293.152 0 325.33 0 325.33 226.148C325.33 242.55 315.74 257.438 300.808 264.22L272.268 277.187C262.022 281.873 250.947 284.217 239.857 284.217Z" fill="#FFFFFF" transform="matrix(1 0 0 1.00263 2906 1827)"/></g></g></g><g clip-path="url(#clip5)"><g clip-path="url(#clip6)"><g clip-path="url(#clip7)"><path d="M3235 2244C3235 2281 3205 2311 3168 2311 3131 2311 3101 2281 3101 2244 3101 2207 3131 2177 3168 2177 3205 2177 3235 2207 3235 2244Z" fill="url(#fill8)"/><path d="M3235 2244C3235 2281 3205 2311 3168 2311 3131 2311 3101 2281 3101 2244 3101 2207 3131 2177 3168 2177 3205 2177 3235 2207 3235 2244Z" fill="url(#fill9)"/><path d="M3227.31 2244C3227.31 2276.76 3200.76 2303.31 3168 2303.31 3135.24 2303.31 3108.69 2276.76 3108.69 2244 3108.69 2211.24 3135.24 2184.69 3168 2184.69 3200.76 2184.69 3227.31 2211.24 3227.31 2244Z" stroke="#FFFFFF" stroke-width="2.61719" fill="none"/><path d="M3155.73 2264.33 3155.73 2279.78C3155.73 2281.54 3155.36 2283.06 3154.61 2284.34 3153.87 2285.62 3152.8 2286.59 3151.41 2287.26 3150.02 2287.93 3148.38 2288.27 3146.48 2288.27 3143.62 2288.27 3141.36 2287.52 3139.71 2286.03 3138.06 2284.54 3137.22 2282.49 3137.19 2279.9L3137.19 2264.33 3142.89 2264.33 3142.89 2280.01C3142.96 2282.6 3144.16 2283.89 3146.48 2283.89 3147.66 2283.89 3148.55 2283.56 3149.15 2282.92 3149.75 2282.27 3150.05 2281.21 3150.05 2279.75L3150.05 2264.33 3155.73 2264.33Z" fill="#FFFFFF"/><path d="M3171.42 2281.67C3171.42 2280.83 3171.13 2280.18 3170.53 2279.72 3169.95 2279.25 3168.92 2278.77 3167.45 2278.28 3165.97 2277.78 3164.76 2277.3 3163.83 2276.83 3160.78 2275.33 3159.25 2273.26 3159.25 2270.64 3159.25 2269.33 3159.63 2268.18 3160.38 2267.18 3161.15 2266.17 3162.23 2265.4 3163.62 2264.84 3165.01 2264.28 3166.57 2264 3168.3 2264 3170 2264 3171.51 2264.3 3172.85 2264.91 3174.19 2265.51 3175.24 2266.38 3175.98 2267.5 3176.72 2268.62 3177.1 2269.89 3177.1 2271.33L3171.44 2271.33C3171.44 2270.37 3171.14 2269.62 3170.55 2269.09 3169.97 2268.56 3169.18 2268.3 3168.17 2268.3 3167.16 2268.3 3166.36 2268.53 3165.77 2268.98 3165.18 2269.42 3164.89 2269.99 3164.89 2270.68 3164.89 2271.29 3165.22 2271.84 3165.86 2272.34 3166.51 2272.83 3167.65 2273.33 3169.27 2273.86 3170.9 2274.38 3172.24 2274.94 3173.28 2275.55 3175.82 2277.02 3177.1 2279.05 3177.1 2281.63 3177.1 2283.7 3176.32 2285.32 3174.77 2286.5 3173.22 2287.68 3171.09 2288.27 3168.38 2288.27 3166.48 2288.27 3164.75 2287.93 3163.2 2287.25 3161.66 2286.55 3160.49 2285.61 3159.7 2284.42 3158.93 2283.22 3158.54 2281.84 3158.54 2280.29L3164.23 2280.29C3164.23 2281.55 3164.55 2282.49 3165.2 2283.09 3165.86 2283.69 3166.92 2283.99 3168.38 2283.99 3169.32 2283.99 3170.06 2283.79 3170.6 2283.39 3171.15 2282.97 3171.42 2282.4 3171.42 2281.67Z" fill="#FFFFFF"/><path d="M3180.01 2287.94 3180.01 2264.33 3187.59 2264.33C3189.67 2264.33 3191.54 2264.8 3193.2 2265.75 3194.85 2266.69 3196.15 2268.03 3197.07 2269.76 3198.01 2271.48 3198.49 2273.41 3198.5 2275.55L3198.5 2276.64C3198.5 2278.8 3198.04 2280.74 3197.12 2282.46 3196.22 2284.17 3194.94 2285.51 3193.28 2286.48 3191.63 2287.45 3189.78 2287.93 3187.75 2287.94L3180.01 2287.94ZM3185.68 2268.72 3185.68 2283.56 3187.65 2283.56C3189.28 2283.56 3190.53 2282.99 3191.4 2281.83 3192.27 2280.66 3192.71 2278.93 3192.71 2276.64L3192.71 2275.62C3192.71 2273.33 3192.27 2271.61 3191.4 2270.46 3190.53 2269.3 3189.26 2268.72 3187.59 2268.72L3185.68 2268.72Z" fill="#FFFFFF"/><path d="M3167.95 2237.19C3165.62 2237.19 3163.3 2237.38 3161 2237.77L3164.46 2231.77C3165.63 2231.69 3166.79 2231.65 3167.95 2231.65 3170.67 2231.65 3173.39 2231.87 3176.08 2232.3L3162.68 2208.99 3140.38 2247.8 3137.19 2242.26 3162.63 2197.96 3162.68 2198.05 3162.74 2197.97 3193.44 2251.42 3187.07 2251.42 3179.89 2238.93C3176.02 2237.76 3171.99 2237.17 3167.95 2237.19L3167.95 2237.19ZM3195.42 2247.9 3165.69 2196.14 3172.06 2196.14 3198.61 2242.35 3195.42 2247.9ZM3165.91 2221.68 3153.7 2242.94C3158.07 2241.61 3163.21 2241.02 3168.06 2241.02 3168.46 2241.02 3168.85 2241.02 3169.24 2241.04 3172 2241.1 3174.74 2241.39 3177.45 2241.89L3181.52 2248.99C3177.21 2247.39 3172.66 2246.57 3168.06 2246.56 3161.37 2246.53 3154.78 2248.19 3148.88 2251.37L3148.97 2251.21 3148.85 2251.42 3142.47 2251.42 3162.74 2216.13 3165.91 2221.68Z" fill="#FFFFFF" fill-rule="evenodd"/></g></g></g><g clip-path="url(#clip10)"><g clip-path="url(#clip11)"><g clip-path="url(#clip12)"><g clip-path="url(#clip13)"><path d="M2977.5 2310.5C3014.5 2310.5 3044.5 2280.5 3044.5 2243.5 3044.5 2206.5 3014.5 2176.5 2977.5 2176.5 2940.5 2176.5 2910.5 2206.5 2910.5 2243.5 2910.5 2280.5 2940.5 2310.5 2977.5 2310.5ZM2977.77 2304.21C3011.3 2304.21 3038.48 2277.03 3038.48 2243.5 3038.48 2209.98 3011.3 2182.79 2977.77 2182.79 2944.24 2182.79 2917.06 2209.97 2917.06 2243.5 2917.06 2277.03 2944.24 2304.21 2977.77 2304.21ZM2977.5 2299.56C3008.46 2299.56 3033.56 2274.46 3033.56 2243.5 3033.56 2212.54 3008.46 2187.44 2977.5 2187.44 2946.54 2187.44 2921.44 2212.54 2921.44 2243.5 2921.44 2274.46 2946.54 2299.56 2977.5 2299.56ZM2977.64 2292.73C3004.9 2292.73 3027 2270.63 3027 2243.36 3027 2216.1 3004.9 2194 2977.64 2194 2950.38 2194 2928.28 2216.1 2928.28 2243.36 2928.28 2270.63 2950.37 2292.73 2977.64 2292.73ZM2977.22 2252.6C2974.48 2252.6 2971.82 2252.83 2969.24 2253.27L2973.21 2246.37C2974.55 2246.28 2975.89 2246.24 2977.22 2246.24 2980.34 2246.24 2983.52 2246.5 2986.58 2246.99L2971.16 2220.2 2945.48 2264.8 2941.81 2258.42 2971.1 2207.56 2971.16 2207.66 2971.22 2207.56 3006.56 2268.95 2999.23 2268.95 2990.97 2254.6C2986.66 2253.3 2982.06 2252.6 2977.22 2252.6ZM3008.85 2264.9 2974.63 2205.47 2981.97 2205.47 3012.52 2258.53 3008.85 2264.9ZM2974.89 2234.79 2960.84 2259.2C2965.86 2257.68 2971.78 2257 2977.36 2257 2977.82 2257 2978.27 2257 2978.72 2257.01 2981.89 2257.09 2985.1 2257.42 2988.17 2258L2992.86 2266.14C2988.06 2264.39 2982.86 2263.36 2977.36 2263.36 2969.23 2263.36 2961.76 2265.38 2955.26 2268.88L2955.36 2268.7 2955.22 2268.94 2947.88 2268.94 2971.22 2228.42 2974.89 2234.79Z" fill="url(#fill14)" fill-rule="evenodd"/></g></g></g></g></g></svg>
